src/catppuccin-mocha-teal-cursors/bottom_side_24.svg

<?xml version="1.0" encoding="UTF-8" standalone="no"?>
<svg
   id="svg5327"
   width="24"
   height="24"
   version="1.1"
   sodipodi:docname="bottom_side_24.svg"
   inkscape:version="1.1.2 (0a00cf5339, 2022-02-04)"
   xmlns:inkscape="http://www.inkscape.org/namespaces/inkscape"
   xmlns:sodipodi="http://sodipodi.sourceforge.net/DTD/sodipodi-0.dtd"
   xmlns="http://www.w3.org/2000/svg"
   xmlns:svg="http://www.w3.org/2000/svg">
  <sodipodi:namedview
     id="namedview11"
     pagecolor="#ffffff"
     bordercolor="#666666"
     borderopacity="1.0"
     inkscape:pageshadow="2"
     inkscape:pageopacity="0.0"
     inkscape:pagecheckerboard="0"
     showgrid="true"
     inkscape:zoom="22.84"
     inkscape:cx="16.024518"
     inkscape:cy="12.478109"
     inkscape:window-width="936"
     inkscape:window-height="1020"
     inkscape:window-x="969"
     inkscape:window-y="45"
     inkscape:window-maximized="1"
     inkscape:current-layer="svg5327">
    <inkscape:grid
       type="xygrid"
       id="grid1204" />
  </sodipodi:namedview>
  <defs
     id="defs5329">
    <filter
       id="filter877"
       style="color-interpolation-filters:sRGB"
       width="1.101"
       height="1.148"
       x="-0.050000001"
       y="-0.07">
      <feGaussianBlur
         id="feGaussianBlur879"
         stdDeviation=".463" />
    </filter>
    <filter
       id="filter822"
       style="color-interpolation-filters:sRGB"
       width="1.1210909"
       height="1.1776"
       x="-0.060545455"
       y="-0.088800001">
      <feGaussianBlur
         id="feGaussianBlur824"
         stdDeviation=".555" />
    </filter>
    <filter
       inkscape:collect="always"
       style="color-interpolation-filters:sRGB"
       id="filter1486"
       x="-0.02006099"
       y="-0.028418279"
       width="1.040122"
       height="1.0568366">
      <feGaussianBlur
         inkscape:collect="always"
         stdDeviation="0.14209868"
         id="feGaussianBlur1488" />
    </filter>
  </defs>
  <path
     style="color:#000000;opacity:0.1;fill:#000000;fill-opacity:1;stroke-linecap:round;stroke-linejoin:round;-inkscape-stroke:none;filter:url(#filter1486)"
     d="M 15.962891,6.5234375 A 1.0001,1.0001 0 0 0 15.072266,6.7636719 C 14.406949,7.3760075 13.153374,8.0500248 11.998047,8.0507812 10.846281,8.0515284 9.5945218,7.3741356 8.9257813,6.7617187 A 1.0001,1.0001 0 0 0 7.4023437,8.0292969 l 3.7480473,6.0000001 a 1.0001,1.0001 0 0 0 1.695312,0 L 16.597656,8.0292969 A 1.0001,1.0001 0 0 0 15.962891,6.5234375 Z M 13.134766,9.796875 11.998047,11.615234 10.863281,9.7988281 c 0.383692,0.080377 0.719864,0.2522219 1.134766,0.2519529 0.414935,-2.71e-4 0.752472,-0.1735265 1.136719,-0.253906 z M 4.5,15.5 a 1.0001,1.0001 0 0 0 -1,1 v 1 a 1.0001,1.0001 0 0 0 1,1 h 15 a 1.0001,1.0001 0 0 0 1,-1 v -1 a 1.0001,1.0001 0 0 0 -1,-1 z"
     id="path1448" />
  <path
     style="color:#000000;fill:#1E1E2E;stroke-linecap:round;stroke-linejoin:round;-inkscape-stroke:none;fill-opacity:1"
     d="M 15.462891,6.0234375 A 1.0001,1.0001 0 0 0 14.572266,6.2636719 C 13.906949,6.8760075 12.653374,7.5500248 11.498047,7.5507812 10.346281,7.5515284 9.0945218,6.8741356 8.4257813,6.2617187 A 1.0001,1.0001 0 0 0 6.9023437,7.5292969 l 3.7480473,6.0000001 a 1.0001,1.0001 0 0 0 1.695312,0 L 16.097656,7.5292969 A 1.0001,1.0001 0 0 0 15.462891,6.0234375 Z M 12.634766,9.296875 11.498047,11.115234 10.363281,9.2988281 c 0.383692,0.080377 0.719864,0.2522223 1.134766,0.2519532 0.414935,-2.717e-4 0.752472,-0.1735268 1.136719,-0.2539063 z M 4,15 a 1.0001,1.0001 0 0 0 -1,1 v 1 a 1.0001,1.0001 0 0 0 1,1 h 15 a 1.0001,1.0001 0 0 0 1,-1 v -1 a 1.0001,1.0001 0 0 0 -1,-1 z"
     id="path1388" />
  <path
     id="path1184"
     style="fill:#94E2D5;fill-opacity:1;stroke:none;stroke-width:0;stroke-linecap:round;stroke-linejoin:round;stroke-miterlimit:4;stroke-dasharray:none;stroke-dashoffset:0;stroke-opacity:1;paint-order:normal"
     d="M 7.75 7 L 11.498047 13 L 15.25 7 C 14.418549 7.76524 13.000976 8.5497972 11.498047 8.5507812 C 9.9951172 8.5517562 8.5810046 7.7610145 7.75 7 z M 4 16 L 4 17 L 19 17 L 19 16 L 4 16 z " />
</svg>

<svg xmlns="http://www.w3.org/2000/svg" width="24" height="24">
    <defs>
        <filter id="a" width="1.04" height="1.057" x="-.02" y="-.028" style="color-interpolation-filters:sRGB">
            <feGaussianBlur stdDeviation=".142"/>
        </filter>
    </defs>
    <path d="M15.963 6.523a1 1 0 0 0-.89.24c-.666.613-1.92 1.287-3.075 1.288-1.152 0-2.403-.677-3.072-1.29A1 1 0 0 0 7.402 8.03l3.748 6a1 1 0 0 0 1.696 0l3.752-6a1 1 0 0 0-.635-1.506m-2.828 3.274-1.137 1.818L10.863 9.8c.384.08.72.252 1.135.252s.753-.174 1.137-.254M4.5 15.5a1 1 0 0 0-1 1v1a1 1 0 0 0 1 1h15a1 1 0 0 0 1-1v-1a1 1 0 0 0-1-1z" style="color:#000;opacity:.1;fill:#000;fill-opacity:1;stroke-linecap:round;stroke-linejoin:round;-inkscape-stroke:none;filter:url(#a)"/>
    <path d="M15.463 6.023a1 1 0 0 0-.89.24c-.666.613-1.92 1.287-3.075 1.288-1.152 0-2.403-.677-3.072-1.29A1 1 0 0 0 6.902 7.53l3.748 6a1 1 0 0 0 1.696 0l3.752-6a1 1 0 0 0-.635-1.506m-2.828 3.274-1.137 1.818L10.363 9.3c.384.08.72.252 1.135.252s.753-.174 1.137-.254M4 15a1 1 0 0 0-1 1v1a1 1 0 0 0 1 1h15a1 1 0 0 0 1-1v-1a1 1 0 0 0-1-1z" style="color:#000;fill:#1e1e2e;stroke-linecap:round;stroke-linejoin:round;-inkscape-stroke:none;fill-opacity:1"/>
    <path d="m7.75 7 3.748 6 3.752-6c-.831.765-2.249 1.55-3.752 1.55C9.995 8.553 8.581 7.762 7.75 7M4 16v1h15v-1z" style="fill:#94e2d5;fill-opacity:1;stroke:none;stroke-width:0;stroke-linecap:round;stroke-linejoin:round;stroke-miterlimit:4;stroke-dasharray:none;stroke-dashoffset:0;stroke-opacity:1;paint-order:normal"/>
</svg>
